X:9
T:Mr. Garden (of Troup's) Strathspey
C:Robert Petrie
S:Petrie's Second Collection of Strathspey Reels and Country Dances &c.
Z:Steve Wyrick <sjwyrick'at'gmail'dot'com>, 6/5/04
N:Petrie's Second Collection, page 3
L:1/8
M:C
R:Strathspey
K:Gm
F|D<GB>c d<GB<G | F<fA>B {AB}c>BA<F|D<GB>c dGBG   |Ff d/c/B/A/ BGGF|
  D<GB>c d<GB<G | F<fA>B {AB}c>BAF |G<BA<c B<dg<d |fc d/c/B/A/ BGG||
f|g>fd<f g>^fg<b|=f<dc>d f>g{fg}a<f|g>fd<f g>^fg<b|fc d/c/B/A/ BGGf|
  g>fd<f g>^fg<b|=f<dc>d f>ga<f    |g<bf<g d<fc<f |AF d/c/B/A/ BGG|]
